X: 203
M: C|
L: 1/8
K: F
f3g (ag)(fd) | (cA)(cd) f3F | GA fe (cA)(GF) | D2d2 d2 |]
cd |\
f3g (fg)(ag) | f2a2 a2gf | (gf)(ga) (ba)(gf) | d2g2 g2(fd) |\
(cd)(fg) (ag)(fd) | (cA)(cd) f3g | (ag)(fd) (cA)(GF) | D2 d4 |]

